X: 1
T: James F. Dickie
M: 4/4
L: 1/8
R: reel
K: Amaj
F|E2cA F2BA|GBdf e2cA|E2cA F2Bc|dcBA GBAF|\
E2cA F2BA|GBdf e2ca|d2fa e2gb|afed cAA|]\
aAAa gAAg|fgaf ecea|c3 e fedc|BFBA GBeg|\
agfa gfeg|fgaf ecea|dcdf eagb|afed cAA|]
